source/img/vacancies/vac-d__pointer.svg

<svg width="108" height="128" viewBox="0 0 108 128" fill="none" xmlns="http://www.w3.org/2000/svg">
<g filter="url(#filter0_d)">
<path d="M52.9737 105C53.1579 102.36 52.2368 87.3684 48.1842 84.2368C46.7136 83.1004 40.1589 81.9562 35.8421 79.6316C30.9749 77.0106 24.9737 71.3421 24.9737 71.3421C24.9737 71.3421 23.5037 58.0648 54.8193 72.0728L53.7105 105H52.9737Z" fill="#ED1C24"/>
<path d="M54.4474 105C54.2632 102.36 55.1842 87.3684 59.2368 84.2368C60.7075 83.1004 67.2621 81.9562 71.5789 79.6316C76.4462 77.0106 82.4473 71.3421 82.4473 71.3421C82.4473 71.3421 83.9174 58.0648 52.6017 72.0728L53.7105 105H54.4474Z" fill="#ED1C24"/>
<path d="M94.7895 43.3421C94.7895 65.6224 76.4803 83.6842 53.8947 83.6842C31.3092 83.6842 13 65.6224 13 43.3421C13 21.0618 31.3092 3 53.8947 3C76.4803 3 94.7895 21.0618 94.7895 43.3421Z" fill="#ED1C24"/>
</g>
<defs>
<filter id="filter0_d" x="0.487224" y="0.219383" width="106.815" height="127.026" filterUnits="userSpaceOnUse" color-interpolation-filters="sRGB">
<feFlood flood-opacity="0" result="BackgroundImageFix"/>
<feColorMatrix in="SourceAlpha" type="matrix" values="0 0 0 0 0 0 0 0 0 0 0 0 0 0 0 0 0 0 127 0"/>
<feOffset dy="9.73216"/>
<feGaussianBlur stdDeviation="6.25639"/>
<feColorMatrix type="matrix" values="0 0 0 0 0.929412 0 0 0 0 0.109804 0 0 0 0 0.141176 0 0 0 0.32 0"/>
<feBlend mode="normal" in2="BackgroundImageFix" result="effect1_dropShadow"/>
<feBlend mode="normal" in="SourceGraphic" in2="effect1_dropShadow" result="shape"/>
</filter>
</defs>
</svg>

<svg width="108" height="128" fill="none" xmlns="http://www.w3.org/2000/svg"><g filter="url(#filter0_d)" fill="#ED1C24"><path d="M52.974 105c.184-2.64-.737-17.632-4.79-20.763-1.47-1.137-8.025-2.28-12.342-4.605-4.867-2.621-10.868-8.29-10.868-8.29s-1.47-13.277 29.845.73L53.711 105h-.737z"/><path d="M54.447 105c-.184-2.64.737-17.632 4.79-20.763 1.47-1.137 8.025-2.28 12.342-4.605 4.867-2.621 10.868-8.29 10.868-8.29s1.47-13.277-29.845.73L53.71 105h.736z"/><path d="M94.79 43.342c0 22.28-18.31 40.342-40.895 40.342C31.309 83.684 13 65.622 13 43.342 13 21.062 31.31 3 53.895 3 76.48 3 94.79 21.062 94.79 43.342z"/></g><defs><filter id="filter0_d" x=".487" y=".219" width="106.815" height="127.026" filterUnits="userSpaceOnUse" color-interpolation-filters="sRGB"><feFlood flood-opacity="0" result="BackgroundImageFix"/><feColorMatrix in="SourceAlpha" values="0 0 0 0 0 0 0 0 0 0 0 0 0 0 0 0 0 0 127 0"/><feOffset dy="9.732"/><feGaussianBlur stdDeviation="6.256"/><feColorMatrix values="0 0 0 0 0.929412 0 0 0 0 0.109804 0 0 0 0 0.141176 0 0 0 0.32 0"/><feBlend in2="BackgroundImageFix" result="effect1_dropShadow"/><feBlend in="SourceGraphic" in2="effect1_dropShadow" result="shape"/></filter></defs></svg>
